sirius_gui/src/main/resources/icons/circular-icons-svg/c-folder-file.svg

<?xml version="1.0" encoding="UTF-8" standalone="no"?>
<svg
   width="64px"
   height="64px"
   viewBox="0 0 64 64"
   version="1.1"
   id="svg9941"
   sodipodi:docname="c-folder-file.svg"
   inkscape:version="1.2 (dc2aeda, 2022-05-15)"
   xmlns:inkscape="http://www.inkscape.org/namespaces/inkscape"
   xmlns:sodipodi="http://sodipodi.sourceforge.net/DTD/sodipodi-0.dtd"
   xmlns="http://www.w3.org/2000/svg"
   xmlns:svg="http://www.w3.org/2000/svg"
   xmlns:sketch="http://www.bohemiancoding.com/sketch/ns">
  <sodipodi:namedview
     id="namedview9943"
     pagecolor="#ffffff"
     bordercolor="#000000"
     borderopacity="0.25"
     inkscape:showpageshadow="2"
     inkscape:pageopacity="0.0"
     inkscape:pagecheckerboard="0"
     inkscape:deskcolor="#d1d1d1"
     showgrid="false"
     inkscape:zoom="3.6875"
     inkscape:cx="0.13559322"
     inkscape:cy="32.271186"
     inkscape:window-width="1565"
     inkscape:window-height="706"
     inkscape:window-x="0"
     inkscape:window-y="39"
     inkscape:window-maximized="0"
     inkscape:current-layer="svg9941" />
  <!-- Generator: Sketch 3.4 (15575) - http://www.bohemiancoding.com/sketch -->
  <title
     id="title9930">c-folder-file</title>
  <desc
     id="desc9932">Created with Sketch.</desc>
  <defs
     id="defs9934" />
  <path
     d="M 32,64 C 49.673112,64 64,49.673112 64,32 64,14.326888 49.673112,0 32,0 14.326888,0 0,14.326888 0,32 0,49.673112 14.326888,64 32,64 Z"
     id="Oval-1"
     fill="#1191bb"
     sketch:type="MSShapeGroup"
     style="fill-rule:evenodd;stroke:none;stroke-width:1;fill:#4da6bf;fill-opacity:1" />
  <path
     d="M 14.4,45 H 14 V 19 h 4 V 39 Z M 42,29 V 19 H 40 V 29 Z M 18,15 h -1 l -3,4 h 4 z m 7.5,16 H 52 L 44,45 H 17.5 Z"
     id="Rectangle-95"
     fill="#ffffff"
     sketch:type="MSShapeGroup"
     style="fill-rule:evenodd;stroke:none;stroke-width:1" />
  <path
     d="M 38,29 V 10 H 20 V 35.666667 L 24,29 Z"
     id="Rectangle-108"
     fill="#ffffff"
     sketch:type="MSShapeGroup"
     style="fill-rule:evenodd;stroke:none;stroke-width:1" />
</svg>

<?xml version="1.0" encoding="UTF-8"?>
<svg id="svg9941" width="64px" height="64px" version="1.1" viewBox="0 0 64 64" xmlns="http://www.w3.org/2000/svg">
 <!-- Generator: Sketch 3.4 (15575) - http://www.bohemiancoding.com/sketch -->
 <title id="title9930">c-folder-file</title>
 <desc id="desc9932">Created with Sketch.</desc>
 <path id="Oval-1" d="m32 64c17.673 0 32-14.327 32-32s-14.327-32-32-32-32 14.327-32 32 14.327 32 32 32z" fill="#4da6bf" fill-rule="evenodd"/>
 <path id="Rectangle-95" d="m14.4 45h-0.4v-26h4v20zm27.6-16v-10h-2v10zm-24-14h-1l-3 4h4zm7.5 16h26.5l-8 14h-26.5z" fill="#fff" fill-rule="evenodd"/>
 <path id="Rectangle-108" d="m38 29v-19h-18v25.667l4-6.6667z" fill="#fff" fill-rule="evenodd"/>
</svg>
